austria/municipalities/41611.svg

<?xml version="1.0" encoding="UTF-8"?>
<!DOCTYPE svg PUBLIC "-//W3C//DTD SVG 1.1//EN" "http://www.w3.org/Graphics/SVG/1.1/DTD/svg11.dtd">
<svg xmlns="http://www.w3.org/2000/svg" version="1.1" width="166px" height="207px" style="shape-rendering:geometricPrecision; text-rendering:geometricPrecision; image-rendering:optimizeQuality; fill-rule:evenodd; clip-rule:evenodd" xmlns:xlink="http://www.w3.org/1999/xlink">
<g><path style="opacity:1" fill="#000000" d="M -0.5,-0.5 C 54.8333,-0.5 110.167,-0.5 165.5,-0.5C 165.5,43.8333 165.5,88.1667 165.5,132.5C 159.762,165.428 141.429,188.595 110.5,202C 105.336,203.369 100.336,204.869 95.5,206.5C 86.8333,206.5 78.1667,206.5 69.5,206.5C 29.5404,196.538 6.20705,171.205 -0.5,130.5C -0.5,86.8333 -0.5,43.1667 -0.5,-0.5 Z"/></g>
<g><path style="opacity:1" fill="#fe9900" d="M 103.5,21.5 C 110.957,22.4827 117.123,25.816 122,31.5C 123.31,36.1936 121.81,39.6936 117.5,42C 116.034,42.6355 114.7,43.4688 113.5,44.5C 112.167,42.5 110.5,40.8333 108.5,39.5C 104.126,41.2359 99.7925,43.0692 95.5,45C 95.201,46.3204 95.0343,47.8204 95,49.5C 82.9165,53.9148 70.4165,55.7481 57.5,55C 63.9044,41.2661 74.2377,31.5995 88.5,26C 93.5351,24.1506 98.5351,22.6506 103.5,21.5 Z"/></g>
<g><path style="opacity:1" fill="#fe9900" d="M 84.5,22.5 C 86.5273,22.3379 88.5273,22.5045 90.5,23C 75.7952,28.4225 64.6285,37.9225 57,51.5C 56.5225,45.1006 58.6892,39.7672 63.5,35.5C 69.8069,29.822 76.8069,25.4886 84.5,22.5 Z"/></g>
<g><path style="opacity:1" fill="#fe9900" d="M 120.5,41.5 C 121.525,41.8966 121.692,42.5632 121,43.5C 119.185,45.4049 117.185,47.0716 115,48.5C 114.333,47.8333 114.333,47.1667 115,46.5C 117.328,45.3365 119.162,43.6698 120.5,41.5 Z"/></g>
<g><path style="opacity:1" fill="#fe9900" d="M 105.5,42.5 C 107.144,42.2865 108.644,42.6198 110,43.5C 111.457,46.366 111.79,49.366 111,52.5C 89.7473,61.8851 67.5806,65.7184 44.5,64C 47.2734,58.8963 50.4401,54.063 54,49.5C 54.6667,51.1667 54.6667,52.8333 54,54.5C 51.2057,56.6348 49.7057,59.1348 49.5,62C 67.4379,62.5158 84.7712,59.5158 101.5,53C 102.167,52.3333 102.833,51.6667 103.5,51C 102.308,49.0876 101.308,47.0876 100.5,45C 102.491,44.6264 104.158,43.793 105.5,42.5 Z"/></g>
<g><path style="opacity:1" fill="#fe9900" d="M 97.5,45.5 C 99.2699,46.8559 100.603,48.6892 101.5,51C 85.4036,57.2381 68.7369,60.2381 51.5,60C 52.6667,58.8333 53.8333,57.6667 55,56.5C 69.4854,58.2166 83.4854,56.2166 97,50.5C 97.4935,48.8659 97.6602,47.1992 97.5,45.5 Z"/></g>
<g><path style="opacity:1" fill="#100903" d="M 105.5,45.5 C 108.685,45.7224 109.685,47.2224 108.5,50C 103.522,50.8641 102.522,49.3641 105.5,45.5 Z"/></g>
<g><path style="opacity:1" fill="#fe9900" d="M 120.5,45.5 C 121.653,46.3132 121.653,47.3132 120.5,48.5C 118.684,49.8149 117.017,51.3149 115.5,53C 117.047,53.3334 118.38,52.8334 119.5,51.5C 119.833,51.8333 120.167,52.1667 120.5,52.5C 118.684,53.8149 117.017,55.3149 115.5,57C 117.047,57.3334 118.38,56.8334 119.5,55.5C 119.456,58.4423 117.789,60.609 114.5,62C 116.903,62.6302 118.737,61.7969 120,59.5C 120.728,64.5334 120.561,69.5334 119.5,74.5C 120.064,76.8193 120.564,79.1526 121,81.5C 124.752,83.2959 128.086,85.6293 131,88.5C 131.667,91.8333 131.667,95.1667 131,98.5C 130.586,98.9574 130.086,99.2907 129.5,99.5C 129.575,96.2254 129.242,92.8921 128.5,89.5C 123.859,88.9246 119.359,87.9246 115,86.5C 114.434,76.1522 114.101,65.8189 114,55.5C 114.192,53.4233 114.692,51.4233 115.5,49.5C 117.419,48.3875 119.086,47.0542 120.5,45.5 Z"/></g>
<g><path style="opacity:1" fill="#fe9900" d="M 75.5,96.5 C 71.2792,92.3999 67.7792,87.7332 65,82.5C 60.3186,77.6515 55.4852,72.9848 50.5,68.5C 71.3933,66.5886 91.7266,62.2552 111.5,55.5C 111.526,66.3856 112.192,77.2189 113.5,88C 106.22,97.2816 98.2205,105.948 89.5,114C 83.4753,118.357 76.8087,120.357 69.5,120C 70.1905,118.933 70.6905,117.766 71,116.5C 71.3333,109.167 71.6667,101.833 72,94.5C 72.8159,95.8228 73.9826,96.4894 75.5,96.5 Z"/></g>
<g><path style="opacity:1" fill="#0f0802" d="M 104.5,59.5 C 108.138,58.7366 109.638,60.0699 109,63.5C 104.777,64.9887 103.277,63.6553 104.5,59.5 Z"/></g>
<g><path style="opacity:1" fill="#181005" d="M 105.5,67.5 C 109.929,68.6656 110.429,70.6656 107,73.5C 103.168,72.1984 102.668,70.1984 105.5,67.5 Z"/></g>
<g><path style="opacity:1" fill="#0f0802" d="M 104.5,76.5 C 108.138,75.7366 109.638,77.0699 109,80.5C 104.415,82.4126 102.915,81.0793 104.5,76.5 Z"/></g>
<g><path style="opacity:1" fill="#fe9900" d="M 115.5,89.5 C 117.086,90.1481 118.753,90.6481 120.5,91C 117.705,92.7932 115.205,94.9598 113,97.5C 108,104.829 103.5,112.495 99.5,120.5C 92.8582,121.664 86.1915,121.831 79.5,121C 83.9508,119.878 87.9508,117.878 91.5,115C 100.071,106.932 108.071,98.4324 115.5,89.5 Z"/></g>
<g><path style="opacity:1" fill="#fe9900" d="M 123.5,90.5 C 124.978,90.238 126.311,90.5713 127.5,91.5C 125.376,92.458 123.376,93.6246 121.5,95C 113.166,105.167 106.5,116.334 101.5,128.5C 90.3732,134.929 78.3732,137.762 65.5,137C 62.1667,134.333 58.8333,131.667 55.5,129C 53.2589,127.261 51.5922,125.094 50.5,122.5C 51.5,121.167 52.5,121.167 53.5,122.5C 56.689,127.189 60.689,131.023 65.5,134C 75.8513,134.53 85.8513,132.864 95.5,129C 97.2226,128.477 98.556,127.477 99.5,126C 104.146,111.885 112.146,100.051 123.5,90.5 Z"/></g>
<g><path style="opacity:1" fill="#fe9900" d="M 68.5,94.5 C 69.6552,101.655 69.8218,108.988 69,116.5C 68.1082,111.586 66.6082,106.92 64.5,102.5C 65.3169,99.5328 66.6503,96.8661 68.5,94.5 Z"/></g>
<g><path style="opacity:1" fill="#fe9900" d="M 126.5,94.5 C 127.096,95.9354 127.096,97.602 126.5,99.5C 124.801,99.6602 123.134,99.4935 121.5,99C 122.822,97.0236 124.488,95.5236 126.5,94.5 Z"/></g>
<g><path style="opacity:1" fill="#000000" d="M 75.5,96.5 C 79.5671,98.0311 83.5671,99.8644 87.5,102C 85.8333,102.667 84.1667,102.667 82.5,102C 79.4279,101.093 77.0945,99.2599 75.5,96.5 Z"/></g>
<g><path style="opacity:1" fill="#fe9900" d="M 62.5,106.5 C 63.7899,107.058 64.6232,108.058 65,109.5C 66.5691,113.703 67.4024,118.036 67.5,122.5C 77.4762,123.332 87.4762,123.666 97.5,123.5C 97.5,124.5 97.5,125.5 97.5,126.5C 92.0291,127.49 86.6957,128.99 81.5,131C 68.8821,134.963 59.8821,131.129 54.5,119.5C 56.9118,115.01 59.5785,110.676 62.5,106.5 Z"/></g>
<g><path style="opacity:1" fill="#191005" d="M 61.5,115.5 C 64.9656,116.109 65.9656,117.942 64.5,121C 60.5369,121.118 59.5369,119.284 61.5,115.5 Z"/></g>
<g><path style="opacity:1" fill="#1a1106" d="M 76.5,124.5 C 80.4535,126.278 80.4535,127.945 76.5,129.5C 74.9996,129.547 73.9996,128.881 73.5,127.5C 74.3398,126.265 75.3398,125.265 76.5,124.5 Z"/></g>
<g><path style="opacity:1" fill="#170e05" d="M 83.5,124.5 C 85.3464,124.222 86.6798,124.889 87.5,126.5C 86.6798,128.111 85.3464,128.778 83.5,128.5C 83.5,127.167 83.5,125.833 83.5,124.5 Z"/></g>
<g><path style="opacity:1" fill="#fefffe" d="M -0.5,130.5 C 6.20705,171.205 29.5404,196.538 69.5,206.5C 46.1667,206.5 22.8333,206.5 -0.5,206.5C -0.5,181.167 -0.5,155.833 -0.5,130.5 Z"/></g>
<g><path style="opacity:1" fill="#fefffe" d="M 165.5,132.5 C 165.5,157.167 165.5,181.833 165.5,206.5C 142.167,206.5 118.833,206.5 95.5,206.5C 100.336,204.869 105.336,203.369 110.5,202C 141.429,188.595 159.762,165.428 165.5,132.5 Z"/></g>
<g><path style="opacity:1" fill="#006632" d="M 76.5,142.5 C 93.4159,141.115 104.416,148.449 109.5,164.5C 119.534,159.72 127.701,162.054 134,171.5C 135.106,175.122 135.439,178.789 135,182.5C 109.407,204.119 80.9066,208.619 49.5,196C 42.8078,192.646 36.6411,188.48 31,183.5C 29.0468,171.915 33.8801,164.582 45.5,161.5C 48.9656,162.077 52.2989,163.077 55.5,164.5C 57.2178,159.397 59.7178,154.73 63,150.5C 67.1834,147.164 71.6834,144.497 76.5,142.5 Z"/></g>
</svg>

<svg xmlns="http://www.w3.org/2000/svg" width="166" height="207" style="shape-rendering:geometricPrecision;text-rendering:geometricPrecision;image-rendering:optimizeQuality;fill-rule:evenodd;clip-rule:evenodd"><path style="opacity:1" d="M-.5-.5h166v133c-5.738 32.928-24.071 56.095-55 69.5a236.853 236.853 0 0 0-15 4.5h-26c-39.96-9.962-63.293-35.295-70-76V-.5z"/><path style="opacity:1" fill="#fe9900" d="M103.5 21.5c7.457.983 13.623 4.316 18.5 10 1.31 4.694-.19 8.194-4.5 10.5a15.653 15.653 0 0 0-4 2.5c-1.333-2-3-3.667-5-5a314.435 314.435 0 0 0-13 5.5c-.299 1.32-.466 2.82-.5 4.5-12.084 4.415-24.584 6.248-37.5 5.5 6.404-13.734 16.738-23.4 31-29a126.034 126.034 0 0 1 15-4.5z"/><path style="opacity:1" fill="#fe9900" d="M84.5 22.5a18.436 18.436 0 0 1 6 .5C75.795 28.422 64.629 37.922 57 51.5c-.477-6.4 1.69-11.733 6.5-16 6.307-5.678 13.307-10.011 21-13zM120.5 41.5c1.025.397 1.192 1.063.5 2a33.837 33.837 0 0 1-6 5c-.667-.667-.667-1.333 0-2 2.328-1.163 4.162-2.83 5.5-5z"/><path style="opacity:1" fill="#fe9900" d="M105.5 42.5c1.644-.214 3.144.12 4.5 1 1.457 2.866 1.79 5.866 1 9C89.747 61.885 67.58 65.718 44.5 64A105.154 105.154 0 0 1 54 49.5c.667 1.667.667 3.333 0 5-2.794 2.135-4.294 4.635-4.5 7.5 17.938.516 35.271-2.484 52-9l2-2a35.64 35.64 0 0 1-3-6c1.991-.374 3.658-1.207 5-2.5z"/><path style="opacity:1" fill="#fe9900" d="M97.5 45.5c1.77 1.356 3.103 3.19 4 5.5-16.096 6.238-32.763 9.238-50 9l3.5-3.5c14.485 1.717 28.485-.283 42-6 .493-1.634.66-3.3.5-5z"/><path style="opacity:1" fill="#100903" d="M105.5 45.5c3.185.222 4.185 1.722 3 4.5-4.978.864-5.978-.636-3-4.5z"/><path style="opacity:1" fill="#fe9900" d="M120.5 45.5c1.153.813 1.153 1.813 0 3a31.83 31.83 0 0 0-5 4.5c1.547.333 2.88-.167 4-1.5l1 1a31.83 31.83 0 0 0-5 4.5c1.547.333 2.88-.167 4-1.5-.044 2.942-1.711 5.109-5 6.5 2.403.63 4.237-.203 5.5-2.5a42.276 42.276 0 0 1-.5 15c.564 2.32 1.064 4.653 1.5 7a36.745 36.745 0 0 1 10 7 25.238 25.238 0 0 1 0 10c-.414.457-.914.79-1.5 1 .075-3.275-.258-6.608-1-10a71.782 71.782 0 0 1-13.5-3 691.437 691.437 0 0 1-1-31 20.204 20.204 0 0 1 1.5-6c1.919-1.112 3.586-2.446 5-4zM75.5 96.5a56.031 56.031 0 0 1-10.5-14 286.585 286.585 0 0 0-14.5-14c20.893-1.911 41.227-6.245 61-13a275.06 275.06 0 0 0 2 32.5 220.874 220.874 0 0 1-24 26c-6.025 4.357-12.691 6.357-20 6a11.357 11.357 0 0 0 1.5-3.5l1-22c.816 1.323 1.983 1.99 3.5 2z"/><path style="opacity:1" fill="#0f0802" d="M104.5 59.5c3.638-.763 5.138.57 4.5 4-4.223 1.489-5.723.155-4.5-4z"/><path style="opacity:1" fill="#181005" d="M105.5 67.5c4.429 1.166 4.929 3.166 1.5 6-3.832-1.302-4.332-3.302-1.5-6z"/><path style="opacity:1" fill="#0f0802" d="M104.5 76.5c3.638-.763 5.138.57 4.5 4-4.585 1.913-6.085.58-4.5-4z"/><path style="opacity:1" fill="#fe9900" d="M115.5 89.5a27.587 27.587 0 0 0 5 1.5 34.706 34.706 0 0 0-7.5 6.5c-5 7.329-9.5 14.995-13.5 23a67.229 67.229 0 0 1-20 .5 30.768 30.768 0 0 0 12-6 287.3 287.3 0 0 0 24-25.5z"/><path style="opacity:1" fill="#fe9900" d="M123.5 90.5c1.478-.262 2.811.071 4 1a33.218 33.218 0 0 0-6 3.5 131.259 131.259 0 0 0-20 33.5c-11.127 6.429-23.127 9.262-36 8.5l-10-8a15.923 15.923 0 0 1-5-6.5c1-1.333 2-1.333 3 0a39.488 39.488 0 0 0 12 11.5c10.351.53 20.351-1.136 30-5 1.723-.523 3.056-1.523 4-3 4.646-14.115 12.646-25.949 24-35.5z"/><path style="opacity:1" fill="#fe9900" d="M68.5 94.5c1.155 7.155 1.322 14.488.5 22a55.303 55.303 0 0 0-4.5-14c.817-2.967 2.15-5.634 4-8zM126.5 94.5c.596 1.435.596 3.102 0 5a12.935 12.935 0 0 1-5-.5c1.322-1.976 2.988-3.476 5-4.5z"/><path style="opacity:1" d="M75.5 96.5a96.043 96.043 0 0 1 12 5.5c-1.667.667-3.333.667-5 0-3.072-.907-5.406-2.74-7-5.5z"/><path style="opacity:1" fill="#fe9900" d="M62.5 106.5c1.29.558 2.123 1.558 2.5 3a39.373 39.373 0 0 1 2.5 13 300.812 300.812 0 0 0 30 1v3a87.364 87.364 0 0 0-16 4.5c-12.618 3.963-21.618.129-27-11.5a129.847 129.847 0 0 1 8-13z"/><path style="opacity:1" fill="#191005" d="M61.5 115.5c3.466.609 4.466 2.442 3 5.5-3.963.118-4.963-1.716-3-5.5z"/><path style="opacity:1" fill="#1a1106" d="M76.5 124.5c3.954 1.778 3.954 3.445 0 5-1.5.047-2.5-.619-3-2 .84-1.235 1.84-2.235 3-3z"/><path style="opacity:1" fill="#170e05" d="M83.5 124.5c1.846-.278 3.18.389 4 2-.82 1.611-2.154 2.278-4 2v-4z"/><path style="opacity:1" fill="#fefffe" d="M-.5 130.5c6.707 40.705 30.04 66.038 70 76h-70v-76zM165.5 132.5v74h-70a236.853 236.853 0 0 1 15-4.5c30.929-13.405 49.262-36.572 55-69.5z"/><path style="opacity:1" fill="#006632" d="M76.5 142.5c16.916-1.385 27.916 5.949 33 22 10.034-4.78 18.201-2.446 24.5 7 1.106 3.622 1.439 7.289 1 11-25.593 21.619-54.093 26.119-85.5 13.5A86.204 86.204 0 0 1 31 183.5c-1.953-11.585 2.88-18.918 14.5-22a41.16 41.16 0 0 1 10 3 47.277 47.277 0 0 1 7.5-14c4.183-3.336 8.683-6.003 13.5-8z"/></svg>
